X: 110
T:The Golden Castle
M:4/4
L:1/8
C:Junior Crehan
K:GDor
(GF)|DG(GF) G2 (3ABc|(dc)d(e f2) ga|\
(gf)(dc) Ad(cA)|GA (3GFD F2 (GF)|
DG(GF) G2 (3ABc|(dc)d(e f2) ga|\
(gf)(dc) Ad(cA)|G2 (GF) G2 :|
|:(3ABc|dgga b2 (gf)|(gf)d(e f3) (g/a/)|\
(gf)(dc) Ad(cA)|GA (3GFD F3 G/F/|
DG(GF) G2 (3ABc|(dc)d(e f2) (3fga|\
(gf)(dc) Ad(cA)|G2 (GF) G2 :|
%  ABC2Win Version 2.1 11/6/2002

% Output from ABC2Win  Version 2.1 i on 18/02/2003
